svgs/sharp-light/sort.svg

<svg xmlns="http://www.w3.org/2000/svg" viewBox="0 0 320 512"><!--! Font Awesome Pro 6.6.0 by @fontawesome - https://fontawesome.com License - https://fontawesome.com/license (Commercial License) Copyright 2024 Fonticons, Inc. --><path d="M32 190.2L160 75 288 190.2l0 1.7L32 192l0-1.7zM0 224l32 0 256 0 32 0 0-32 0-16L160 32 0 176l0 16 0 32zm32 97.8l0-1.8 256 0 0 1.8L160 437 32 321.8zM0 288l0 32 0 16L160 480 320 336l0-16 0-32-32 0L32 288 0 288z"/></svg>

<svg xmlns="http://www.w3.org/2000/svg" viewBox="0 0 320 512"><!--! Font Awesome Pro 6.4.0 by @fontawesome - https://fontawesome.com License - https://fontawesome.com/license (Commercial License) Copyright 2023 Fonticons, Inc. --><path d="M32 190.2L160 75 288 190.2V192H32v-1.7zM0 224H32 288h32V192 176L160 32 0 176v16 32zm32 97.8V320H288v1.8L160 437 32 321.8zM0 288v32 16L160 480 320 336V320 288H288 32 0z"/></svg>
